!!!OTL: ALLES KOMMT ZU SEINEM ENDE
!!!ARE: Europa, Mitteleuropa, Deutschland, Schlesien
!!!SCT: B0469
!!!YEM: Copyright 1995, estate of Helmut Schaffrath.
**kern
*ICvox
*Ivox
*M4/4
*k[f#c#]
*D:
{8dd
8cc#
=1
4dd
4d
8d
8dd
8cc#
8b
=2
4a
4g
4f#}
{8a
8a
=3
4a
8b
8g
4f#
8g
8e
=4
2d
4r}
{8dd
8cc#
=5
4dd
4d
8d
8dd
8cc#
8b
=6
4a
4g
4f#}
{8a
8a
=7
4a
8b
8g
4f#
8g
8e
=8
2d
4r}
{8c#
8d
=9
4.e
8a
4a
8g
8f#
=10
4f#
4e
4r}
{8c#
8d
=11
4.e
8a
4a
8g
8f#
=12
4f#
4e
4r}
{8dd
8cc#
=13
4dd
4d
8d
8dd
8cc#
8b
=14
4a
4g
4f#}
{8a
8a
=15
4a
8b
8g
4f#
8g
8e
=16
2d
4r}
==
!!!AGN: Liebes - Lied, Leid, Klage
!!!ONB: ESAC (Essen Associative Code) Database: BOEHME
!!!AMT: simple quadruple
!!!AIN: vox
!!!EED: Helmut Schaffrath
!!!EEV: 1.0
*-
